X: 16
T: BRISTOL
%R: hornpipe
B: Jean White "100 Popular Hornpipes, Reels, Jigs and Country Dances", Boston 1880 p.7
F: http://www.loc.gov/resource/sm1880.09124.0#seq-1
Z: 2014 John Chambers <jc:trillian.mit.edu>
M: C|
L: 1/8
K: A
% - - - - - - - - - - - - - - - - - - - - - - - - - - - - -
(3efg |\
a>ec>e A>ce>a | f>dB>c A2B>c |\
d>ef>e d>cB>A | G>AF>G E2 (3efg |
a>ec>e A>ce>a | f>dB>c A2B>c |\
d>fe>d c>BA>G | B2A2 A2 :|
|: e>d |\
c>eA>ec>eA>e | d>fB>f d>fB>f |\
c>eA>e c>eA>e | G>BE>B G>BE>B |
c>eA>e c>eA>e | d>fB>f d>fB>f |\
e>ag>f e>dc>B | A2c2 A2 H:|
% - - - - - - - - - - - - - - - - - - - - - - - - - - - - -

%%sep 1 1 500
%%sep 1 1 500
